X: 1
T: Erets zavat chalav
C: E.Gamliel
O: Deuteronomy 27:3
W: * clap
W: A land flowing with milk and honey.
N: May be sung as a 2-part round
M: C
L: 1/8
K: Em
[| "Em"E2 ED DE E2 | "*"z2 "*"zE "D"FE/D/ "Em"E2 \
|  "Em"E2 ED DE E2 | "*"z2 "*"zE "D"FE/D/ "Em"E2 |
w:	E-rets za-vat cha-lav cha-lav u-d'-vash \
	e-rets za-vat cha-lav cha-lav u-d'-vash
| "Am"A2 BG "Em"GG G2 | "*"z2 "*"zG "B7"AG/F/ "Em"G2 \
| "Am"A2 BG "Em"GG G2 | "*"z2 "*"zB "B7"AG/F/ "Em"E2 |]
w:	E-rets za-vat cha-lav cha-lav u-d'-vash \
	e-rets za-vat cha-lav cha-lav u-d'-vash
[|"Em"(e3 d)  e2 B2 | "Am"(AG) A2 "Em"G4 \
| "Em"(e3 d)  e2 B2 | "Am"(AG) BA "Em"G4 |
w:	E-*rets za-vat* cha-lav \
	za-*vat cha-lav* u-d'-vash
| "G"(d3 c) B2 d2 | "Bm"(fe) (fd) "Em"e4 \
| "G"(d3 c) B2 d2 | "Bm"(fe)  fd  "Em"e4 |]
w:	E-*rets za-vat* cha-*lav \
	za-*vat cha-lav* u-d'-vash
